svg/general/cog.svg

<svg width="16" height="16" viewBox="0 0 16 16" fill="none" xmlns="http://www.w3.org/2000/svg">
<path d="M15.975 7.169H15.965L14.44 6.91C14.3024 6.90264 14.1694 6.85837 14.0548 6.78182C13.9403 6.70528 13.8484 6.59929 13.789 6.475C13.653 5.95399 13.4465 5.45403 13.175 4.989C13.1286 4.85874 13.118 4.71844 13.1442 4.58267C13.1704 4.44691 13.2325 4.32064 13.324 4.217L14.224 2.957L14.23 2.949C14.24 2.934 14.24 2.923 14.23 2.914L14.2 2.89L14.155 2.844L13.155 1.844L13.095 1.784L13.085 1.775C13.076 1.765 13.065 1.765 13.05 1.775L11.782 2.675C11.6788 2.76662 11.5529 2.82887 11.4175 2.85525C11.2821 2.88164 11.142 2.87119 11.012 2.825C10.5462 2.55339 10.0456 2.34649 9.524 2.21C9.40004 2.1505 9.29435 2.05878 9.218 1.94443C9.14164 1.83007 9.09744 1.6973 9.09 1.56L8.833 0.035V0.025C8.828 0.008 8.821 0 8.807 0H7.193C7.179 0 7.172 0.008 7.169 0.025L6.91 1.56C6.90286 1.69763 6.85866 1.83078 6.7821 1.94537C6.70553 2.05996 6.59942 2.15173 6.475 2.211C5.95399 2.34697 5.45403 2.55355 4.989 2.825C4.85874 2.87138 4.71844 2.88203 4.58267 2.85583C4.44691 2.82962 4.32064 2.76753 4.217 2.676L2.957 1.776L2.949 1.77C2.934 1.76 2.923 1.76 2.914 1.77L2.89 1.8L2.844 1.845L1.844 2.845L1.784 2.905L1.775 2.915C1.765 2.924 1.765 2.935 1.775 2.95L2.675 4.218C2.76662 4.32118 2.82887 4.44706 2.85525 4.5825C2.88164 4.71794 2.87119 4.85797 2.825 4.988C2.55382 5.45174 2.34724 5.95035 2.211 6.47C2.15164 6.59477 2.05996 6.70138 1.94549 6.77875C1.83101 6.85612 1.69791 6.90144 1.56 6.91L0.035 7.167H0.025C0.008 7.167 0 7.177 0 7.191V8.807C0 8.821 0.008 8.828 0.025 8.831L1.56 9.09C1.69791 9.09856 1.83101 9.14388 1.94549 9.22125C2.05996 9.29862 2.15164 9.40523 2.211 9.53C2.34701 10.0494 2.5536 10.5477 2.825 11.011C2.87138 11.1413 2.88203 11.2816 2.85583 11.4173C2.82962 11.5531 2.76753 11.6794 2.676 11.783L1.776 13.051C1.766 13.066 1.766 13.077 1.776 13.086L1.785 13.096L1.845 13.156L2.845 14.156L2.891 14.201L2.915 14.225C2.924 14.235 2.935 14.235 2.95 14.225L2.958 14.219L4.218 13.319C4.32118 13.2274 4.44706 13.1651 4.5825 13.1387C4.71794 13.1124 4.85797 13.1228 4.988 13.169C5.452 13.4406 5.95095 13.6475 6.471 13.784C6.59563 13.8433 6.70214 13.9348 6.77951 14.0491C6.85687 14.1634 6.90227 14.2963 6.911 14.434L7.17 15.97C7.17 15.987 7.18 15.995 7.194 15.995H8.807C8.821 15.995 8.828 15.987 8.831 15.97V15.96L9.088 14.434C9.09673 14.2963 9.14213 14.1634 9.21949 14.0491C9.29686 13.9348 9.40337 13.8433 9.528 13.784C10.0474 13.648 10.5457 13.4414 11.009 13.17C11.1393 13.1236 11.2796 13.113 11.4153 13.1392C11.5511 13.1654 11.6774 13.2275 11.781 13.319L13.049 14.219C13.064 14.229 13.075 14.229 13.084 14.219L13.094 14.21L13.154 14.15L14.154 13.15L14.199 13.104L14.223 13.08C14.233 13.071 14.233 13.06 14.223 13.045L14.217 13.037L13.317 11.777C13.2254 11.6738 13.1631 11.5479 13.1367 11.4125C13.1104 11.2771 13.1208 11.137 13.167 11.007C13.4386 10.543 13.6455 10.044 13.782 9.524C13.8414 9.39923 13.933 9.29262 14.0475 9.21525C14.162 9.13788 14.2951 9.09256 14.433 9.084L15.968 8.825C15.985 8.825 15.993 8.815 15.993 8.801V7.193C16 7.179 15.992 7.172 15.975 7.169ZM10.619 10.619C10.1012 11.1357 9.44195 11.4873 8.72443 11.6295C8.00691 11.7716 7.26336 11.6979 6.58772 11.4176C5.91208 11.1374 5.33467 10.6631 4.92844 10.0548C4.52222 9.44652 4.30541 8.73147 4.30541 8C4.30541 7.26854 4.52222 6.55348 4.92844 5.94519C5.33467 5.33689 5.91208 4.86265 6.58772 4.58238C7.26336 4.30211 8.00691 4.22839 8.72443 4.37054C9.44195 4.51268 10.1012 4.86431 10.619 5.381C10.9634 5.72468 11.2366 6.1329 11.423 6.5823C11.6095 7.03171 11.7054 7.51346 11.7054 8C11.7054 8.48654 11.6095 8.96829 11.423 9.4177C11.2366 9.8671 10.9634 10.2753 10.619 10.619Z" fill="black"/>
</svg>

<svg id="Layer_1" data-name="Layer 1" xmlns="http://www.w3.org/2000/svg" viewBox="0 0 16 16"><title>cog</title><path d="M15.975,7.169l-.01,0L14.44,6.91a.767.767,0,0,1-.651-.435h0a5.906,5.906,0,0,0-.614-1.486h0a.774.774,0,0,1,.149-.772l.9-1.26.006-.008c.01-.015.01-.026,0-.035L14.2,2.89l-.045-.046-1-1-.06-.06-.01-.009c-.009-.01-.02-.01-.035,0l-1.268.9a.771.771,0,0,1-.77.15h0a5.938,5.938,0,0,0-1.488-.615h0A.767.767,0,0,1,9.09,1.56L8.833.035l0-.01C8.828.008,8.821,0,8.807,0H7.193c-.014,0-.021.008-.024.025L6.91,1.56a.765.765,0,0,1-.435.651h0a5.906,5.906,0,0,0-1.486.614h0a.774.774,0,0,1-.772-.149l-1.26-.9-.008-.006c-.015-.01-.026-.01-.035,0L2.89,1.8l-.046.045-1,1-.06.06-.009.01c-.01.009-.01.02,0,.035l.9,1.268a.771.771,0,0,1,.15.77h0A5.9,5.9,0,0,0,2.211,6.47h0a.774.774,0,0,1-.651.44L.035,7.167l-.01,0c-.017,0-.025.01-.025.024V8.807c0,.014.008.021.025.024L1.56,9.09a.774.774,0,0,1,.651.44h0a5.873,5.873,0,0,0,.614,1.481h0a.774.774,0,0,1-.149.772l-.9,1.268c-.01.015-.01.026,0,.035l.009.01.06.06,1,1,.046.045.024.024c.009.01.02.01.035,0l.008-.006,1.26-.9a.771.771,0,0,1,.77-.15h0a5.9,5.9,0,0,0,1.483.615h0a.774.774,0,0,1,.44.65l.259,1.536c0,.017.01.025.024.025H8.807c.014,0,.021-.008.024-.025l0-.01.257-1.526a.774.774,0,0,1,.44-.65h0a5.873,5.873,0,0,0,1.481-.614h0a.774.774,0,0,1,.772.149l1.268.9c.015.01.026.01.035,0l.01-.009.06-.06,1-1,.045-.046.024-.024c.01-.009.01-.02,0-.035l-.006-.008-.9-1.26a.771.771,0,0,1-.15-.77h0a5.9,5.9,0,0,0,.615-1.483h0a.774.774,0,0,1,.651-.44l1.535-.259c.017,0,.025-.01.025-.024V7.193C16,7.179,15.992,7.172,15.975,7.169Zm-5.356,3.45a3.7,3.7,0,1,1,0-5.238A3.7,3.7,0,0,1,10.619,10.619Z"/></svg>
